assets/icon-faqs.svg

<svg width="24" height="20" viewBox="0 0 24 20" xmlns="http://www.w3.org/2000/svg"><path d="M0 0v2h2V0H0zm4 0v2h20V0H4zM0 5v2h2V5H0zm4 0v2h20V5H4zm-4 8v2h2v-2H0zm4 0v2h20v-2H4zm-4 5v2h2v-2H0zm4 0v2h20v-2H4z" fill="#89a"/></svg>

<?xml version="1.0" encoding="UTF-8"?>
<svg width="24px" height="20px" viewBox="0 0 24 20" version="1.1" xmlns="http://www.w3.org/2000/svg" xmlns:xlink="http://www.w3.org/1999/xlink">
    <title>icons8-questionnaire</title>
    <g id="Page-1" stroke="none" stroke-width="1" fill="none" fill-rule="evenodd">
        <g id="Main" transform="translate(-373.000000, -447.000000)" fill="#A9ABB0" fill-rule="nonzero">
            <g id="icons8-questionnaire" transform="translate(373.000000, 447.000000)">
                <path d="M0,0 L0,2 L2,2 L2,0 L0,0 Z M4,0 L4,2 L24,2 L24,0 L4,0 Z M0,5 L0,7 L2,7 L2,5 L0,5 Z M4,5 L4,7 L24,7 L24,5 L4,5 Z M0,13 L0,15 L2,15 L2,13 L0,13 Z M4,13 L4,15 L24,15 L24,13 L4,13 Z M0,18 L0,20 L2,20 L2,18 L0,18 Z M4,18 L4,20 L24,20 L24,18 L4,18 Z" id="Shape"></path>
            </g>
        </g>
    </g>
</svg>
